X:1
T:James Gibb editions
T:Astri di quel bel viso - Caldara
T:#
%%score 1 { ( 2 4 ) | 3 }
L:1/8
Q:1/4=90
M:4/4
K:Bb
V:1 treble nm="Midi_74"
V:2 treble nm="Midi_7"
V:4 treble 
V:3 bass 
V:1
"^Recit.""^Antonio Caldara\n(1670 -1736)" G2 G2 z DFG |"^Astri di quel bel viso" E2 E2 z EDC | %2
w: A- stri di quel bel|vi- so un sguar- do|
 _AA z A/A/ A2 GA | FF z F/G/ _A2 AG | G2 G2 z GGB | _D2 D2 z G/_A/ BB/A/ | F2 F2 z FFC | %7
w: so- lo qual- che po- co se-|re- no da- rà vi- ta~al mio|se- no, ed il mio|duo- lo ces- se- rà~in un in-|stan- te; di più non|
 _DD z B =E>E EF | FC z2 !fermata!z4 ||[K:Eb][M:3/4][Q:1/4=80][Q:1/4=80] z2 | z6 | z6 | z6 | z6 | %14
w: chie- de un svi- sce- ra- to~a-|man- te.||||||
 z6 | z6 | z6 |[M:3/4] z6 | z2 z2 F2 | G2 C2 B2 | (BG) A2 z A | (_GF) GF (GF) | =E2 F2 z F | %23
w: ||||Al-|men non ne-|ga\- * te mie|lu\- * ci * spie\- *|ta- te se|
 B2 B2 B2 | C2 A2 z G | F2 BA (GF) | c2 C2 z2 | z2 z2 F2 | (GF) (GF) (GF) | E2 D2 C2 | (A6- | %31
w: voi non mi~a-|ma- te ch'io|pos- sa a- do\- *|rar- vi,|al-|men * non * ne\- *|ga- te ch'io|pos\-|
 AFDcBA | GECBAG | F6- | FEDA) GF | (E2 D4) | C4 z2 | z6 | z6 | z2 z2 =E2 | F2 F2 C2 | %41
w: |||* * * * sa~a- do-|rar\- *|vi,|||al-|men non ne-|
 (_DC) B,2 z F | B2 (BA) (GF) | (=E>D) C2 z C | F2 =A3 A | (B=A) B2 z G | =E2 D2 C2 | (A6- | %48
w: ga\- * te mie|lu- ci, * spie\- *|ta\- * te se|voi non mi~a-|ma\- * te ch'io|pos- sa~a- do-|rar\-|
 AF_DA_GF | _G3 AF=E | B3 A/G/ AF | _DB A2 G2) | F4 z F | G2 C2 z2 | B2 A2 G2 | (AG/F/ =E4) | %56
w: ||||vi, ch'io|pos- sa,|pos- sa~a- do-|rar\- * * *|
 F4 z2 | z6 | z6 | z6 | z6 | z6 | z6 | !fermata!z4 x2!fine! || A2 x4 | B2 E3 _D | _D2 C2 z E | %67
w: vi.||||||||Se~un|dol- ce de-|sti- no dal|
 A2 B3 A | (GF) E2 z E | F2 _D2 B,2 | G2 E2 C2 | A2 F2 _D2 | B2 E2 z A | (AF_DcBA | G2) AG (A2- | %75
w: gi- ro di-|vi\- * no di|voi, vi- ve|stel- le, pu-|pil- le più|bel- le m'in-|se\- * * * * *|* gna~ad a- mar\-|
 AF G4) | A4 z A | B2 B,2 z B | c2 =E3 E | (FCE_GFE | _DCDB=AG | =AG) F2 z A | (BE _D2 C2) | %83
w: |vi, m'in-|se- gna, m'in-|se- gna~ad a-|mar\- * * * * *||* * vi, a-|mar\- * * *|
"^al fine" B,4 |] %84
w: vi.|
V:2
 [CEG]4 [G,DF]4 | [G,CE]4 [CEG]4 | [CE_A]8 | [B,F_A]8 | [B,EG]8 | [_DGB]8 | [CF_A]4 [CFc]4 | %7
 [_DFB]4- [D=EG]4 | [CF_A]2 [B,=EG]2 !fermata![_A,CF]4 ||[K:Eb][M:3/4]"^Aria\nandante" z F | %10
 (F2 =E2) z G | (G=E F2) z c | (c2 B2) B[A_d] | (_dB [=EG]3) [Gd=e] | x4 _dc | x4 (B_d) | %16
 (_d c2) ([=EG][Fc][CGB]) |[M:3/4] ([CFA][_DFB]) ([=EG]3 F) | [A,CF]4 [A,CA]2 | [B,G]4 [CGB]2 | %20
 [CGB]2 [CFA]2 [FAc]2 | ([_D_Gc]2 [DGB]2) (_d2 | [=E_d]2) [FAc]2 [Fcf]2 | [_GBf]2 [GBe]2 [GBd]2 | %24
 c4 [=EGB]2 | A2 B2 =B2 | c4 B2 | A2 f3 _e | e2 =d2 [!courtesy!=DFG]2 | AGAGcB | %30
 [CFA]2 [CFA]2 [FA]2 | [B,FA]6 | [B,EG]2 [CGB]4 | [CFA][Fc]fedc | [FG=B]2 z Bcd | ec d2 =B2 | %36
 [EGc]2 ecGE | G2 F2 F[EA] | AF [=B,D]3 [A=B] | [Gc][=EB][G_d][FB]AG | cB [CFA]2 z [CA] | %41
 [_DF]2 _dcd[cf] | [FBf]2 [FB_d]2 [FB=d]2 | [=EG=e]2 efeg | [cf][=Ae][c_g][Be] _dc | %45
 [FBf]3 [FB] B_d | _d c2 =Bc_B | AF[CA][Fc]fe | [FA_d]2 z2 z2 | _dB [B,_D_G]2 [A,F][=G,=E] | %50
 [F,B,F]2 [B,_DG]2 [A,CA]2- | A G2 F2 =E | [F,A,F]4 z [A,F] | [C=EG]4 z2 | [B,FB]2 [CFA]2 [_DFG]2 | %55
 [CFA]2 [=EG]4 | [A,CF]2 [FA]2 z c | [_D_Gc]2 [DGB]2 B[A_d] | _dB [=EG]3 [Gd=e] | %59
 [Fcf][=A_e][c_g][Be]_dc | [FBf]3 [FB]B_d | _d c2 [=EG][Fc][CGB] | [CFA][_DFB] [=EG]3 F | %63
 !fermata![A,CF]4 x2 || [CFA]2 x4 | [B,EB]4 [B,_DE]2 | E2 E2 E2 | [CFA]2 [B,FB]2 [B,FA]2 | %68
 [EG][DF] [B,EG]2 [E_GA]2 | [_DFA]2 [Ff]2 [F_d]2 | [GB]2 [Gg]2 [Ge]2 | [Ac]2 [Aa]2 [Af]2 | %72
 [B_d]2 [Bb]2 e2 | f3 e_dc | [EGB]2 [EAe]2 z [EAe] | e_d [EGc]2- [_DGB]2 | [CA][EB] [Ac]2 [Acf]2 | %77
 [_GBf]2 [GBe]2 _d2 | BB [=EG]2 G_d | [CFc]2 [C_E_G]4 | [_DF]2 [B,FB]3 [DG] | %81
 [F=A][GB] c_g [Bf][Ae] | [FB_d][E_Gc] [_DFB]2 [CF=A]2 | [_DFB]4 |] %84
V:3
 C,4 =B,,4 | C,8- | C,8 | D,8 | E,8 | =E,8 | F,4 !courtesy!=A,,4 | B,,8 | C,4 !fermata!F,,4 || %9
[K:Eb][M:3/4] F,2 | G,2 C,2 B,2 | B,G, A,2 z A, | _G,F,G,F,G,F, | =E,G,B,_DCB, | =A,C,E,_G,F,E, | %15
 _D,F,B,_DG,B, | C,2 z CA,=E, |[M:3/4] F,B,, C,2 C,,2 | F,,4 F,2- | F,2 =E,4 | F,2 F,,2 F,2 | %21
 B,2 B,,2 B,2 | B,G, A,2 z A, | _G,F,G,F,G,F, | =E,2 F,2 C,2 | _D,6 | C,4 z C | _DCDCDC | =B,6 | %29
 C6 | F,E,F,E,F,E, | D,6 | E,2 =E,4 | F,A,D,F, =B,,D, | G,,2 z (G,,=A,,=B,,) | C,2 G,2 G,,2 | %36
 C,4 z C, | _D,C,D,C,D,C, | =B,,=D,F,A,G,F, | =E,G,B,_DCB, | A,G, F,2 z F, | B,=A,B,A,B,A, | %42
 _D2 B,2 =B,2 | C=B,CB,C_B, | =A,C,E,_G,F,E, | _D,F,B,_D G,B, | C,2 z2 =E,2 | F,A,F,A, _D,F, | %48
 B,,2 z2 z2 | B,,2 B,,2 C,2 | _D,2 =E,,2 F,,2 | B,,2 C,2 C,,2 | _D,4 z D, | C,4 z2 | %54
 _D,2 C,2 B,,2 | C,6 | F,,4 F,2 | _G,F,G,F,G,F, | =E,G,B,_DCB, | =A,C,E,_G,F,E, | _D,F,B,_D G,B, | %61
 C,2 z CA,=E, | F,B,, C,2 C,,2 | !fermata!F,,4 x2 || F,2 x4 | G,4 G,2 | A,G,A,G,A,G, | %67
 F,E, _D,2 =D,2 | E,B,,E,,E,_D,C, | _D,6 | E,6 | F,6 | G,E, G,,E,_D,C, | _D,2 D,2 D,2 | %74
 _D,B,, C,2 z C, | _D,2 E,2 E,,2 | A,E,A,,A,_G,F, | _G,F,G,F,G,F, | =E,G,B,_DCB, | =A,6 | %80
 B,2 _D,3 E, | F,C,F,,E,_D,C, | _D,E, F,2 F,,2 | B,,4 |] %84
V:4
 x8 | x8 | x8 | x8 | x8 | x8 | x8 | x8 | x8 ||[K:Eb][M:3/4] [A,C]2 | [B,C]2 [B,C]2 [C=E]2 | %11
 _D2 C2 [CF]2 | [_D_G]2 [DG]2 D2 | =G2 x4 | [Fcf][=A_e][c_g][Be] [FA]2 | [FBf]3 [FB] F2 | %16
 [=EG]3 x3 |[M:3/4] x2 C2 B,2 | x6 | (_D2 C2) x2 | x6 | x4 [_GB][FA] | =GB x4 | x6 | %24
 [=GB]2 [CA]2 x2 | F3 =EFG | [FA]2 [=EG]2 [EG]2 | F2 [FA]2 [FA]2 | [FG]4 x2 | [CE]2 [DF]2 [EG]2 | %30
 x4 xx | x6 | x6 | x2 [FA]2 [FA]2 | x2 x [FG]3 | [EG]2 [DG]4 | x2 [EG]2 C2 | [A,_D]2 [A,D]2 A,2 | %38
 =D2 x4 | x4 =E2 | [CF]2 x4 | x2 F2 F2 | x6 | x2 [Gc]2 [Gc]2 | x4 [F_A]2 | x4 F2 | %46
 [=EG]2 x2 [CG]2 | C2 x2 [FA]2 | x6 | [_D_G]2 x2 C2 | x6 | [B,_D]2 [A,C]2 [G,B,]2 | x6 | x6 | x6 | %55
 x2 C2 B,2 | x4 [FA]2 | x4 _D2 | =G2 x4 | x4 [F_A]2 | x4 F2 | [=EG]3 x3 | x2 C2 B,2 | x6 || x6 | %65
 CB,CB,CB, | x6 | B,2 x4 | x3[I:staff +1] F,B,A, | x6 | G,2[I:staff -1] x[I:staff +1] G,CB, | %71
 A,2[I:staff -1] x[I:staff +1] A,_DC | B,2[I:staff -1] x2 GA | F2 F2 F2 | x6 | [FA]2 x4 | x6 | %77
 x4 BA | =G2 x2 _E2 | x6 | x6 | E2 F2 F2 | x6 | x4 |] %84

